; generated by PrusaSlicer 2.9.2 on 2026-04-03 at 19:52:46 UTC

; 

; external perimeters extrusion width = 0.45mm
; perimeters extrusion width = 0.45mm
; infill extrusion width = 0.45mm
; solid infill extrusion width = 0.45mm
; top infill extrusion width = 0.42mm
; first layer extrusion width = 0.50mm

M73 P0 R15
M73 Q0 S14
M201 X200 Y200 Z100 E100 ; sets maximum accelerations, mm/sec^2
M203 X300 Y300 Z40 E100 ; sets maximum feedrates, mm / sec
M204 S100 T100 ; sets acceleration (S) and retract acceleration (R), mm/sec^2
M205 X2.00 Y2.00 Z1.00 E2.00 ; sets the jerk limits, mm/sec
M205 S0 T0 ; sets the minimum extruding and travel feed rate, mm/sec

M486 S0
M486 AuniformporeScaffold.stl
M486 S-1

;TYPE:Custom
M17 ; enable steppers
G90 ; use absolute coordinates
G28 ; home all axes
G1 X100 Y60 Z25.6 F4800 ; move to start position, just above the bed
M0 Input Syringe;
G21 ; set units to millimeters
G90 ; use absolute coordinates
M83 ; use relative distances for extrusion
; Filament start G-code stripped for heaterless operation
M107
;LAYER_CHANGE
;Z:25.6
;HEIGHT:25.6
G1 E-.7 F2100
G1 Z51.4 F720
M486 S0
G1 X127.957 Y105.422 F18000
G1 Z25.6 F720
M106
G4 P500
G1 E.7 F1500
M107
M73 P0 R14
M204 S4
;TYPE:Perimeter
;WIDTH:0.499999
;HEIGHT:0.2
G1 F240
G3 X127.773 Y105.565 I-.595 J-.574 E.00889
G1 X127.466 Y105.637 E.01198
M106
G4 P500
G1 X124.023 Y105.637 E.13086
M107
G1 X123.717 Y105.565 E.01195
M73 P1 R14
G3 X123.41 Y105.258 I.411 J-.717 E.0167
G1 X123.338 Y104.952 E.01195
M106
G4 P500
G1 X123.338 Y101.509 E.13086
M107
G1 X123.41 Y101.202 E.01198
M73 Q1 S14
G3 X123.717 Y100.896 I.718 J.411 E.01667
G1 X124.023 Y100.823 E.01196
M106
G4 P500
G1 X127.466 Y100.823 E.13086
M107
G1 X127.773 Y100.896 E.01199
G3 X128.08 Y101.202 I-.411 J.717 E.01667
G1 X128.152 Y101.509 E.01198
M106
G4 P500
G1 X128.152 Y104.952 E.13086
M107
G1 X128.08 Y105.258 E.01195
G3 X127.997 Y105.377 I-.718 J-.41 E.00552
G1 X127.596 Y105.127 F18000
;TYPE:External perimeter
G1 F240
G1 X127.466 Y105.18 E.00534
M106
G4 P500
G1 X124.023 Y105.18 E.13086
M107
G1 X123.862 Y105.113 E.00663
G1 X123.795 Y104.952 E.00663
M106
G4 P500
G1 X123.795 Y101.509 E.13086
M107
G1 X123.862 Y101.347 E.00666
G1 X124.023 Y101.28 E.00663
M106
G4 P500
G1 X127.466 Y101.28 E.13086
M107
G1 X127.628 Y101.347 E.00666
G1 X127.695 Y101.509 E.00666
M106
G4 P500
G1 X127.695 Y104.952 E.13086
M107
G1 X127.637 Y105.09 E.00569
G1 X127.246 Y105.172 F18000
G1 E-.7 F2100
G1 X127.941 Y111.418 Z25.71 F18000
G1 Z25.6 F720
M73 P2 R14
M73 Q2 S14
M106
G4 P500
G1 E.7 F1500
M107
;TYPE:Perimeter
G1 F240
G1 X127.859 Y111.514 E.0048
;WIDTH:0.536248
G1 X127.771 Y111.569 E.00426
;WIDTH:0.572497
M106
G4 P500
G1 X127.683 Y111.625 E.00459
M107
;WIDTH:0.608746
G3 X127.466 Y111.688 I-.18 J-.214 E.01094
;WIDTH:0.601054
M106
G4 P500
G1 X124.023 Y111.688 E.15979
M107
G1 X123.893 Y111.63 E.00661
;WIDTH:0.567369
G1 X123.762 Y111.572 E.00625
;WIDTH:0.533684
G1 X123.631 Y111.514 E.00585
;WIDTH:0.499999
M106
G4 P500
G1 X123.405 Y111.248 E.01327
M107
G1 X123.338 Y110.952 E.01153
M106
G4 P500
G1 X123.338 Y107.509 E.13086
M107
G1 X123.41 Y107.202 E.01198
G3 X123.717 Y106.896 I.718 J.411 E.01667
G1 X124.023 Y106.823 E.01196
M106
G4 P500
G1 X127.466 Y106.823 E.13086
M107
G1 X127.773 Y106.896 E.01199
G3 X128.08 Y107.202 I-.411 J.717 E.01667
G1 X128.152 Y107.509 E.01198
M106
G4 P500
G1 X128.152 Y110.952 E.13086
M107
G1 X128.085 Y111.248 E.01153
G1 X127.979 Y111.372 E.0062
G1 X127.629 Y111.105 F18000
;TYPE:External perimeter
G1 F240
G3 X127.466 Y111.18 I-.176 J-.167 E.00699
M106
G4 P500
G1 X124.023 Y111.18 E.13086
M107
G3 X123.817 Y111.051 I.028 J-.271 E.00957
G1 X123.795 Y110.952 E.00385
M106
G4 P500
G1 X123.795 Y107.509 E.13086
M107
G1 X123.862 Y107.347 E.00666
G1 X124.023 Y107.28 E.00663
M106
G4 P500
G1 X127.466 Y107.28 E.13086
M107
G1 X127.628 Y107.347 E.00666
M73 P3 R14
G1 X127.695 Y107.509 E.00666
M106
G4 P500
G1 X127.695 Y110.952 E.13086
M107
G3 X127.664 Y111.056 I-.242 J-.014 E.00416
M73 Q3 S14
G1 X127.281 Y111.171 F18000
G1 E-.7 F2100
G1 X121.957 Y107.039 Z25.718 F18000
G1 Z25.6 F720
M106
G4 P500
G1 E.7 F1500
M107
;TYPE:Perimeter
G1 F240
G3 X122.08 Y107.202 I-.595 J.574 E.00778
G1 X122.152 Y107.509 E.01198
M106
G4 P500
G1 X122.152 Y110.952 E.13086
M107
G1 X122.085 Y111.248 E.01153
M106
G4 P500
G1 X121.859 Y111.514 E.01327
M107
;WIDTH:0.536248
G1 X121.771 Y111.569 E.00426
;WIDTH:0.572497
M106
G4 P500
G1 X121.683 Y111.625 E.00459
M107
;WIDTH:0.608746
G3 X121.466 Y111.688 I-.18 J-.214 E.01094
;WIDTH:0.601054
M106
G4 P500
G1 X118.023 Y111.688 E.15979
M107
G1 X117.836 Y111.574 E.01016
;WIDTH:0.567369
G1 X117.649 Y111.46 E.00955
;WIDTH:0.533684
G1 X117.462 Y111.345 E.00896
;WIDTH:0.499999
M106
G4 P500
G1 X117.348 Y111.07 E.01131
M107
G1 X117.338 Y110.952 E.0045
M106
G4 P500
G1 X117.338 Y107.509 E.13086
M107
G1 X117.433 Y107.161 E.01371
G1 X117.652 Y106.933 E.01202
G1 X117.813 Y106.856 E.00678
M106
G4 P500
G1 X118.023 Y106.823 E.00808
G1 X121.466 Y106.823 E.13086
M107
G1 X121.773 Y106.896 E.01199
G3 X121.914 Y106.997 I-.411 J.717 E.0066
G1 X121.596 Y107.334 F18000
;TYPE:External perimeter
G1 F240
M73 P4 R14
G1 X121.628 Y107.347 E.00131
M106
G4 P500
G1 X121.695 Y107.509 E.00666
G1 X121.695 Y110.952 E.13086
M107
G3 X121.466 Y111.18 I-.242 J-.014 E.01344
M73 Q4 S14
G1 X118.023 Y111.18 E.13086
G1 X117.836 Y111.083 E.00801
G1 X117.795 Y110.952 E.00522
M106
G4 P500
G1 X117.795 Y107.509 E.13086
M107
G1 X117.827 Y107.393 E.00457
M106
G4 P500
G1 X117.953 Y107.291 E.00616
M107
G1 X118.023 Y107.28 E.00269
M106
G4 P500
G1 X121.466 Y107.28 E.13086
M107
G1 X121.54 Y107.311 E.00305
G1 X121.688 Y107.682 F18000
G1 E-.7 F2100
G1 X121.957 Y105.422 Z25.64 F18000
G1 Z25.6 F720
M106
G4 P500
G1 E.7 F1500
M107
;TYPE:Perimeter
G1 F240
G3 X121.773 Y105.565 I-.595 J-.574 E.00889
G1 X121.466 Y105.637 E.01198
M106
G4 P500
G1 X118.023 Y105.637 E.13086
M107
G1 X117.813 Y105.604 E.00808
G1 X117.652 Y105.528 E.00677
M106
G4 P500
G1 X117.433 Y105.3 E.01202
G1 X117.338 Y104.952 E.01371
G1 X117.338 Y101.509 E.13086
M107
G1 X117.433 Y101.161 E.01371
G1 X117.652 Y100.933 E.01202
M106
G4 P500
G1 X117.964 Y100.826 E.01254
G1 X121.466 Y100.823 E.1331
M107
G1 X121.773 Y100.896 E.01199
M73 P5 R14
G3 X122.08 Y101.202 I-.411 J.717 E.01667
G1 X122.152 Y101.509 E.01198
M106
G4 P500
G1 X122.152 Y104.952 E.13086
M107
G1 X122.08 Y105.258 E.01195
M73 Q5 S14
G3 X121.997 Y105.377 I-.718 J-.41 E.00552
G1 X121.596 Y105.127 F18000
;TYPE:External perimeter
G1 F240
G1 X121.466 Y105.18 E.00534
M106
G4 P500
G1 X118.023 Y105.18 E.13086
M107
G1 X117.953 Y105.169 E.00269
M106
G4 P500
G1 X117.827 Y105.068 E.00614
M107
G1 X117.795 Y104.952 E.00457
M106
G4 P500
G1 X117.795 Y101.509 E.13086
M107
G3 X118.023 Y101.28 I.249 J.021 E.01335
G1 X121.466 Y101.28 E.13086
G1 X121.628 Y101.347 E.00666
G1 X121.695 Y101.509 E.00666
M106
G4 P500
G1 X121.695 Y104.952 E.13086
M107
G1 X121.637 Y105.09 E.00569
G1 X121.246 Y105.172 F18000
G1 E-.7 F2100
G1 X127.94 Y95.042 Z25.812 F18000
G1 Z25.6 F720
M106
G4 P500
G1 E.7 F1500
M107
M73 P6 R14
;TYPE:Perimeter
G1 F240
G1 X128.078 Y95.198 E.00792
M106
G4 P500
G1 X128.152 Y95.509 E.01215
G1 X128.152 Y98.952 E.13086
M107
M73 Q6 S14
G1 X128.08 Y99.258 E.01195
G3 X127.773 Y99.565 I-.718 J-.41 E.0167
M106
G4 P500
G1 X127.466 Y99.637 E.01198
G1 X124.023 Y99.637 E.13086
M107
G1 X123.717 Y99.565 E.01195
G3 X123.41 Y99.258 I.411 J-.717 E.0167
G1 X123.338 Y98.952 E.01195
M106
G4 P500
G1 X123.338 Y95.509 E.13086
M107
G1 X123.412 Y95.198 E.01215
M106
G4 P500
G1 X123.639 Y94.941 E.01303
M107
;WIDTH:0.5452
G1 X123.724 Y94.883 E.0043
;WIDTH:0.590401
M106
G4 P500
G1 X123.808 Y94.825 E.00465
M107
;WIDTH:0.635601
G3 X124.023 Y94.759 I.177 J.192 E.01146
;WIDTH:0.627707
M106
G4 P500
G1 X127.466 Y94.759 E.16742
M107
G1 X127.595 Y94.82 E.00694
;WIDTH:0.585138
G1 X127.723 Y94.881 E.00639
;WIDTH:0.542569
G1 X127.851 Y94.941 E.00587
;WIDTH:0.499999
G1 X127.9 Y94.997 E.00283
G1 X127.632 Y95.363 F18000
;TYPE:External perimeter
G1 F240
G3 X127.695 Y95.509 I-.188 J.168 E.00615
M106
G4 P500
G1 X127.695 Y98.952 E.13086
M107
G1 X127.628 Y99.113 E.00663
M73 Q6 S13
M106
G4 P500
G1 X127.466 Y99.18 E.00666
G1 X124.023 Y99.18 E.13086
M107
G1 X123.862 Y99.113 E.00663
G1 X123.795 Y98.952 E.00663
M106
G4 P500
G1 X123.795 Y95.509 E.13086
M107
G1 X123.82 Y95.405 E.00407
M106
G4 P500
G1 X123.984 Y95.284 E.00775
M107
G1 X124.023 Y95.28 E.00149
M106
G4 P500
G1 X127.466 Y95.28 E.13086
M107
G3 X127.587 Y95.324 I-.022 J.251 E.00495
G1 X127.686 Y95.711 F18000
M73 P7 R14
G1 E-.7 F2100
G1 X133.927 Y99.436 Z25.727 F18000
M73 Q7 S13
G1 Z25.6 F720
M106
G4 P500
G1 E.7 F1500
M107
;TYPE:Perimeter
G1 F240
G1 X133.681 Y99.603 E.0113
G1 X133.466 Y99.637 E.00827
M106
G4 P500
G1 X130.023 Y99.637 E.13086
M107
G1 X129.717 Y99.565 E.01195
G1 X129.539 Y99.437 E.00833
M106
G4 P500
G1 X129.41 Y99.258 E.00839
G1 X129.338 Y98.952 E.01195
G1 X129.338 Y95.509 E.13086
M107
G1 X129.412 Y95.198 E.01215
M73 P7 R13
M106
G4 P500
G1 X129.639 Y94.941 E.01303
M107
;WIDTH:0.5452
G1 X129.724 Y94.883 E.0043
;WIDTH:0.590401
M106
G4 P500
G1 X129.808 Y94.825 E.00465
M107
;WIDTH:0.635601
G3 X130.023 Y94.759 I.177 J.192 E.01146
;WIDTH:0.627707
M106
G4 P500
G1 X133.466 Y94.759 E.16742
M107
;WIDTH:0.67545
G1 X133.687 Y94.803 E.01185
;WIDTH:0.723192
M106
G4 P500
G1 X133.909 Y94.846 E.01279
M107
G1 X133.947 Y94.956 E.00658
;WIDTH:0.680981
G1 X133.985 Y95.067 E.00622
;WIDTH:0.63877
G1 X134.023 Y95.177 E.00577
;WIDTH:0.596558
G1 X134.061 Y95.288 E.0054
;WIDTH:0.554347
G1 X134.099 Y95.398 E.00495
;WIDTH:0.512136
G1 X134.137 Y95.509 E.00458
;WIDTH:0.469924
M106
G4 P500
G1 X134.137 Y98.952 E.12225
M107
;WIDTH:0.476622
G1 X134.13 Y99.068 E.00419
;WIDTH:0.499999
M106
G4 P500
G1 X133.993 Y99.39 E.0133
M107
G1 X133.976 Y99.402 E.00079
G1 X133.596 Y99.119 F18000
;TYPE:External perimeter
G1 F240
M106
G4 P500
G1 X133.466 Y99.18 E.00546
G1 X130.023 Y99.18 E.13086
M107
G1 X129.862 Y99.113 E.00663
G1 X129.795 Y98.952 E.00663
M106
G4 P500
G1 X129.795 Y95.509 E.13086
M107
G1 X129.82 Y95.405 E.00407
M73 P8 R13
M73 Q8 S13
M106
G4 P500
G1 X129.984 Y95.284 E.00775
M107
G1 X130.023 Y95.28 E.00149
M106
G4 P500
G1 X133.466 Y95.28 E.13086
M107
G1 X133.593 Y95.319 E.00505
M106
G4 P500
G1 X133.695 Y95.509 E.0082
G1 X133.695 Y98.952 E.13086
M107
G1 X133.645 Y99.089 E.00554
G1 X133.254 Y99.171 F18000
G1 E-.7 F2100
G1 X133.927 Y105.436 Z25.71 F18000
G1 Z25.6 F720
M106
G4 P500
G1 E.7 F1500
M107
;TYPE:Perimeter
G1 F240
G1 X133.681 Y105.603 E.0113
G1 X133.466 Y105.637 E.00827
M106
G4 P500
G1 X130.023 Y105.637 E.13086
M107
G1 X129.717 Y105.565 E.01195
G3 X129.41 Y105.258 I.411 J-.717 E.0167
G1 X129.338 Y104.952 E.01195
M106
G4 P500
G1 X129.338 Y101.509 E.13086
M107
G1 X129.41 Y101.202 E.01198
G3 X129.717 Y100.896 I.718 J.411 E.01667
G1 X130.023 Y100.823 E.01196
M106
G4 P500
G1 X133.466 Y100.823 E.13086
M107
G1 X133.681 Y100.858 E.00828
M106
G4 P500
G1 X133.993 Y101.07 E.01434
G1 X134.137 Y101.509 E.01756
M107
;WIDTH:0.469924
M106
G4 P500
G1 X134.137 Y104.952 E.12225
M107
;WIDTH:0.476622
G1 X134.13 Y105.068 E.00419
M73 P9 R13
M73 Q9 S13
;WIDTH:0.499999
M106
G4 P500
G1 X133.993 Y105.39 E.0133
M107
G1 X133.976 Y105.402 E.00079
G1 X133.596 Y105.119 F18000
;TYPE:External perimeter
G1 F240
M106
G4 P500
G1 X133.466 Y105.18 E.00546
G1 X130.023 Y105.18 E.13086
M107
G1 X129.862 Y105.113 E.00663
G1 X129.795 Y104.952 E.00663
M106
G4 P500
G1 X129.795 Y101.509 E.13086
M107
G1 X129.862 Y101.347 E.00666
G1 X130.023 Y101.28 E.00663
M106
G4 P500
G1 X133.466 Y101.28 E.13086
M107
G1 X133.642 Y101.363 E.0074
G1 X133.695 Y101.509 E.0059
M106
G4 P500
G1 X133.695 Y104.952 E.13086
M107
G1 X133.645 Y105.089 E.00554
G1 X133.254 Y105.171 F18000
G1 E-.7 F2100
G1 X133.927 Y107.025 Z25.634 F18000
G1 Z25.6 F720
M106
G4 P500
G1 E.7 F1500
M107
;TYPE:Perimeter
G1 F240
G1 X133.993 Y107.07 E.00304
M106
G4 P500
G1 X134.137 Y107.509 E.01756
M107
;WIDTH:0.469924
M106
G4 P500
G1 X134.137 Y110.952 E.12225
M107
;WIDTH:0.476622
G1 X134.13 Y111.068 E.00419
;WIDTH:0.522264
M106
G4 P500
G1 X134.089 Y111.173 E.00449
M107
;WIDTH:0.567906
M106
G4 P500
G1 X134.048 Y111.278 E.00492
M107
;WIDTH:0.613548
M106
G4 P500
G1 X134.006 Y111.384 E.00541
M107
;WIDTH:0.65919
M106
G4 P500
G1 X133.965 Y111.489 E.00578
M107
;WIDTH:0.704832
M106
G4 P500
G1 X133.924 Y111.594 E.0062
G1 X133.771 Y111.625 E.00859
M107
;WIDTH:0.67024
G1 X133.619 Y111.657 E.0081
;WIDTH:0.635647
G1 X133.466 Y111.688 E.00769
;WIDTH:0.601054
M106
G4 P500
G1 X130.023 Y111.688 E.15979
M107
G1 X129.893 Y111.63 E.00661
M73 P10 R13
M73 Q10 S13
;WIDTH:0.567369
G1 X129.762 Y111.572 E.00625
;WIDTH:0.533684
G1 X129.631 Y111.514 E.00585
;WIDTH:0.499999
M106
G4 P500
G1 X129.405 Y111.248 E.01327
M107
G1 X129.338 Y110.952 E.01153
M106
G4 P500
G1 X129.338 Y107.509 E.13086
M107
G1 X129.41 Y107.202 E.01198
G3 X129.717 Y106.896 I.718 J.411 E.01667
G1 X130.023 Y106.823 E.01196
M106
G4 P500
G1 X133.466 Y106.823 E.13086
M107
G1 X133.681 Y106.858 E.00828
M106
G4 P500
G1 X133.877 Y106.991 E.009
M107
G1 X133.596 Y107.341 F18000
;TYPE:External perimeter
G1 F240
G1 X133.642 Y107.363 E.00194
M106
G4 P500
G1 X133.695 Y107.509 E.0059
G1 X133.695 Y110.952 E.13086
M107
G1 X133.599 Y111.138 E.00796
G1 X133.466 Y111.18 E.0053
M106
G4 P500
G1 X130.023 Y111.18 E.13086
M107
G1 X129.893 Y111.139 E.00518
M106
G4 P500
G1 X129.796 Y110.972 E.00734
M107
G1 X129.795 Y110.952 E.00076
M106
G4 P500
G1 X129.795 Y107.509 E.13086
M107
G1 X129.862 Y107.347 E.00666
G1 X130.023 Y107.28 E.00663
M106
G4 P500
G1 X133.466 Y107.28 E.13086
M107
G1 X133.542 Y107.316 E.0032
G1 X133.689 Y107.688 F18000
G1 E-.7 F2100
G1 X121.936 Y99.442 Z25.851 F18000
G1 Z25.6 F720
M73 P11 R13
M73 Q11 S13
M106
G4 P500
G1 E.7 F1500
M107
;TYPE:Perimeter
G1 F240
G3 X121.773 Y99.565 I-.574 J-.594 E.00778
G1 X121.466 Y99.637 E.01198
M106
G4 P500
G1 X118.023 Y99.637 E.13086
M107
G3 X117.652 Y99.528 I.043 J-.831 E.01483
G1 X117.433 Y99.3 E.01202
M106
G4 P500
G1 X117.338 Y98.952 E.01371
G1 X117.338 Y95.509 E.13086
M107
G1 X117.475 Y95.098 E.01647
;WIDTH:0.5452
G1 X117.614 Y94.988 E.0074
;WIDTH:0.590401
M106
G4 P500
G1 X117.754 Y94.877 E.00813
M107
;WIDTH:0.635601
M106
G4 P500
G1 X117.893 Y94.767 E.00874
M107
G1 X118.023 Y94.759 E.00642
;WIDTH:0.627707
M106
G4 P500
G1 X121.466 Y94.759 E.16742
M107
G1 X121.595 Y94.82 E.00694
;WIDTH:0.585138
G1 X121.723 Y94.881 E.00639
;WIDTH:0.542569
G1 X121.851 Y94.941 E.00587
;WIDTH:0.499999
M106
G4 P500
G1 X122.078 Y95.198 E.01303
M107
G1 X122.152 Y95.509 E.01215
M106
G4 P500
G1 X122.152 Y98.952 E.13086
M107
G1 X122.08 Y99.258 E.01195
G3 X121.978 Y99.399 I-.718 J-.41 E.00663
G1 X121.596 Y99.127 F18000
;TYPE:External perimeter
G1 F240
G1 X121.466 Y99.18 E.00534
M106
G4 P500
G1 X118.023 Y99.18 E.13086
M107
G1 X117.9 Y99.144 E.00487
M106
G4 P500
G1 X117.798 Y98.991 E.00699
M107
G1 X117.795 Y98.952 E.00149
M106
G4 P500
G1 X117.795 Y95.509 E.13086
M107
G1 X117.84 Y95.372 E.00548
M106
G4 P500
G1 X118.023 Y95.28 E.00778
G1 X121.466 Y95.28 E.13086
M107
G3 X121.695 Y95.509 I-.022 J.251 E.01337
M73 P12 R13
M73 Q12 S13
G1 X121.695 Y98.952 E.13086
G1 X121.637 Y99.09 E.00569
G1 X121.246 Y99.172 F18000
G1 E-.7 F2100
G1 X134.446 Y112.194 Z25.924 F18000
G1 Z25.6 F720
M106
G4 P500
G1 E.7 F1500
M107
;TYPE:Perimeter
;WIDTH:0.704832
G1 F240
G2 X133.899 Y112.212 I-.138 J4.295 E.03014
